casedrop/img/upgrade/icons/music-note.svg

<svg width="20" height="20" viewBox="0 0 20 20" fill="none" xmlns="http://www.w3.org/2000/svg">
<path fill-rule="evenodd" clip-rule="evenodd" d="M7.09283 3.08198C7.47175 3.39491 7.95455 3.54167 8.33317 3.54167C8.67834 3.54167 8.95817 3.8215 8.95817 4.16667C8.95817 4.51185 8.67834 4.79167 8.33317 4.79167C7.7328 4.79167 7.04027 4.59095 6.45817 4.17042V9.16667C6.45817 9.29959 6.41667 9.42284 6.34592 9.52417C6.01286 10.6427 4.9766 11.4583 3.74984 11.4583C2.25406 11.4583 1.0415 10.2458 1.0415 8.75C1.0415 7.25423 2.25406 6.04167 3.74984 6.04167C4.28677 6.04167 4.78721 6.19792 5.20817 6.46743V1.66667H6.45817C6.45817 2.33155 6.73184 2.78385 7.09283 3.08198ZM5.20817 8.75C5.20817 7.94459 4.55525 7.29167 3.74984 7.29167C2.94442 7.29167 2.2915 7.94459 2.2915 8.75C2.2915 9.55542 2.94442 10.2083 3.74984 10.2083C4.55525 10.2083 5.20817 9.55542 5.20817 8.75ZM16.3104 3.28425C15.7507 3.42689 15.0178 3.73185 13.9542 4.17701L12.2875 4.8746C11.779 5.08744 11.4438 5.22864 11.1974 5.3647C10.9644 5.49338 10.8635 5.59015 10.7993 5.68662C10.7351 5.78308 10.6848 5.91355 10.6561 6.17816C10.6257 6.45796 10.6248 6.82165 10.6248 7.37292V9.07684L17.7079 6.24363C17.7063 5.31973 17.6955 4.65427 17.622 4.15711C17.5393 3.59779 17.3975 3.40626 17.2436 3.30383C17.0898 3.2014 16.8583 3.14462 16.3104 3.28425ZM18.9582 6.6521V6.62298C18.9582 5.53514 18.9583 4.64801 18.8585 3.97417C18.7554 3.27744 18.5255 2.65544 17.9362 2.26321C17.3468 1.87098 16.6843 1.89903 16.0018 2.07296C15.3417 2.24116 14.5233 2.58369 13.5198 3.00372L11.7748 3.73411C11.3044 3.93096 10.9059 4.09774 10.5932 4.27048C10.2603 4.45427 9.97367 4.67105 9.75867 4.99407C9.54375 5.3171 9.45442 5.66523 9.41342 6.04318C9.37484 6.39841 9.37484 6.83041 9.37484 7.3403V9.98584C9.37459 9.99542 9.37459 10.005 9.37484 10.0146V13.9674C8.95392 13.6979 8.45342 13.5417 7.9165 13.5417C6.42073 13.5417 5.20817 14.7543 5.20817 16.25C5.20817 17.7458 6.42073 18.9583 7.9165 18.9583C9.41225 18.9583 10.6248 17.7458 10.6248 16.25C10.6248 16.1083 10.6139 15.9692 10.593 15.8333H10.6248V10.4232L17.7082 7.58982V12.3008C17.2873 12.0313 16.7868 11.875 16.2498 11.875C14.7541 11.875 13.5415 13.0876 13.5415 14.5833C13.5415 16.0791 14.7541 17.2917 16.2498 17.2917C17.7456 17.2917 18.9582 16.0791 18.9582 14.5833C18.9582 14.4859 18.953 14.3897 18.943 14.2948H18.9582V6.68086C18.9584 6.67129 18.9584 6.66171 18.9582 6.6521ZM16.2498 13.125C15.4444 13.125 14.7915 13.7779 14.7915 14.5833C14.7915 15.3888 15.4444 16.0417 16.2498 16.0417C17.0553 16.0417 17.7082 15.3888 17.7082 14.5833C17.7082 13.7779 17.0553 13.125 16.2498 13.125ZM7.9165 14.7917C7.11109 14.7917 6.45817 15.4446 6.45817 16.25C6.45817 17.0554 7.11109 17.7083 7.9165 17.7083C8.72192 17.7083 9.37484 17.0554 9.37484 16.25C9.37484 15.4446 8.72192 14.7917 7.9165 14.7917Z" fill="white"/>
</svg>

<svg width="20" height="20" fill="none" xmlns="http://www.w3.org/2000/svg"><path fill-rule="evenodd" clip-rule="evenodd" d="M7.093 3.082c.379.313.862.46 1.24.46a.625.625 0 010 1.25 3.28 3.28 0 01-1.875-.622v4.997a.622.622 0 01-.112.357 2.71 2.71 0 11-1.138-3.057v-4.8h1.25c0 .665.274 1.117.635 1.415zM5.208 8.75a1.458 1.458 0 10-2.916 0 1.458 1.458 0 002.916 0zM16.31 3.284c-.56.143-1.292.448-2.356.893l-1.667.698c-.508.212-.843.354-1.09.49-.233.128-.333.225-.398.322-.064.096-.114.227-.143.491-.03.28-.031.644-.031 1.195v1.704l7.083-2.833c-.002-.924-.012-1.59-.086-2.087-.083-.56-.224-.75-.378-.853-.154-.103-.386-.16-.934-.02zm2.648 3.368v-.029c0-1.088 0-1.975-.1-2.649-.103-.697-.332-1.319-.922-1.71-.59-.393-1.252-.365-1.934-.191-.66.168-1.479.51-2.482.93l-1.745.731c-.47.197-.87.364-1.182.536-.333.184-.62.401-.834.724-.215.323-.305.671-.346 1.05-.038.354-.038.786-.038 1.296v6.627a2.708 2.708 0 101.218 1.866h.032v-5.41l7.083-2.833v4.71a2.708 2.708 0 101.235 1.994h.015V6.653zm-2.708 6.473a1.458 1.458 0 100 2.917 1.458 1.458 0 000-2.917zm-8.334 1.667a1.458 1.458 0 100 2.916 1.458 1.458 0 000-2.916z" fill="#fff"/></svg>
